packages/sources/assets/src/assets/flag-np.svg

<svg width="28" height="20" viewBox="0 0 28 20" fill="none" xmlns="http://www.w3.org/2000/svg">
<rect x="0.25" y="0.25" width="27.5" height="19.5" rx="1.75" fill="white" stroke="#F5F5F5" stroke-width="0.5"/>
<path fill-rule="evenodd" clip-rule="evenodd" d="M0 2C0 0.895431 0.89543 -1.06478e-09 2 0L2.46482 4.56679e-10C2.59643 5.84276e-10 2.7251 0.0389587 2.83462 0.111966L15.0026 8.22393C16.1002 8.9557 15.5822 10.6667 14.263 10.6667H8L15.9961 17.6632C16.9226 18.474 16.3492 20 15.1181 20H2C0.895428 20 0 19.1046 0 18V2Z" fill="white"/>
<mask id="mask0_503_3918" style="mask-type:alpha" maskUnits="userSpaceOnUse" x="0" y="0" width="17" height="20">
<path fill-rule="evenodd" clip-rule="evenodd" d="M0 2C0 0.895431 0.89543 -1.06478e-09 2 0L2.46482 4.56679e-10C2.59643 5.84276e-10 2.7251 0.0389587 2.83462 0.111966L15.0026 8.22393C16.1002 8.9557 15.5822 10.6667 14.263 10.6667H8L15.9961 17.6632C16.9226 18.474 16.3492 20 15.1181 20H2C0.895428 20 0 19.1046 0 18V2Z" fill="white"/>
</mask>
<g mask="url(#mask0_503_3918)">
<path d="M15.1181 19.3333H0.666667V0.666667L2.46482 0.666667L14.6328 8.77863C15.1816 9.14452 14.9226 10 14.263 10H8C7.72226 10 7.47362 10.1722 7.37593 10.4322C7.27824 10.6922 7.35198 10.9855 7.561 11.1684L15.5571 18.1649C16.0203 18.5703 15.7336 19.3333 15.1181 19.3333Z" fill="#EE1B44" stroke="#0543A8" stroke-width="1.33333" stroke-linejoin="round"/>
<path fill-rule="evenodd" clip-rule="evenodd" d="M6.8511 7.80077C7.23521 7.69551 7.58932 7.55154 7.90252 7.37615C7.59187 8.50452 6.55836 9.33334 5.33126 9.33334C4.10417 9.33334 3.07066 8.50452 2.76001 7.37615C3.07407 7.55202 3.42928 7.6963 3.81462 7.80165L4.33334 7.33334L3.48558 6.56797L4.62624 6.62623L4.56798 5.48558L5.33334 6.33334L6.09871 5.48558L6.04045 6.62623L7.1811 6.56797L6.33334 7.33334L6.8511 7.80077ZM4.31297 17.1304L5.33346 16L6.35395 17.1304L6.27627 15.6095L7.79714 15.6872L6.66679 14.6667L7.79714 13.6462L6.27627 13.7239L6.35395 12.203L5.33346 13.3333L4.31297 12.203L4.39065 13.7239L2.86978 13.6462L4.00013 14.6667L2.86978 15.6872L4.39065 15.6095L4.31297 17.1304Z" fill="white"/>
</g>
</svg>

<svg width="28" height="20" fill="none" xmlns="http://www.w3.org/2000/svg"><rect x=".25" y=".25" width="27.5" height="19.5" rx="1.75" fill="#fff" stroke="#F5F5F5" stroke-width=".5"/><path fill-rule="evenodd" clip-rule="evenodd" d="M0 2a2 2 0 0 1 2-2h.465a.67.67 0 0 1 .37.112l12.168 8.112c1.097.732.58 2.443-.74 2.443H8l7.996 6.996c.927.811.353 2.337-.878 2.337H2a2 2 0 0 1-2-2V2Z" fill="#fff"/><mask id="a" style="mask-type:alpha" maskUnits="userSpaceOnUse" x="0" y="0" width="17" height="20"><path fill-rule="evenodd" clip-rule="evenodd" d="M0 2a2 2 0 0 1 2-2h.465a.67.67 0 0 1 .37.112l12.168 8.112c1.097.732.58 2.443-.74 2.443H8l7.996 6.996c.927.811.353 2.337-.878 2.337H2a2 2 0 0 1-2-2V2Z" fill="#fff"/></mask><g mask="url(#a)"><path d="M15.118 19.333H.667V.667h1.798l12.168 8.112c.549.366.29 1.221-.37 1.221H8a.667.667 0 0 0-.439 1.168l7.996 6.997a.667.667 0 0 1-.439 1.168Z" fill="#EE1B44" stroke="#0543A8" stroke-width="1.333" stroke-linejoin="round"/><path fill-rule="evenodd" clip-rule="evenodd" d="M6.851 7.8a4.628 4.628 0 0 0 1.052-.424 2.668 2.668 0 0 1-5.143 0c.314.176.67.32 1.055.426l.518-.469-.847-.765 1.14.058-.058-1.14.765.847.766-.847-.059 1.14 1.141-.058-.848.765.518.468Zm-2.538 9.33L5.333 16l1.021 1.13-.078-1.52 1.521.077-1.13-1.02 1.13-1.02-1.52.077.077-1.521-1.02 1.13-1.021-1.13.078 1.52-1.521-.077L4 14.666l-1.13 1.021 1.52-.077-.077 1.52Z" fill="#fff"/></g></svg>
